X:1
T:MacGregor's Search
M:3/4
I:linebreak $
L:1/8
N:Heard on "Crunluath" played by Hamish Moore.
Q:1/4=56
R:Slow March
S:MacLeod
K:Hp
%%MIDI drone 110 45 57 3
%%MIDI droneon
z3/ e | {g}A3/2B1/2 {GA}e2 {A}e2 | {gfg}f3/2d1/2 {g}fe {g}A2 | {g}A3/2B1/2 {GdA}e2 {A}e2 | {gfg}f3/2e1/2 {g}ed {g}G2 | 
{ded}d3/2c1/2 {Gdc}d2 {g}ed |$
{gBd}B3/2A1/2 {g}A2 {gf}g2 | {eg}e3/2d1/2 {g}B1/2d3/2 {g}A2 | {g}A2 {GBA}B2 {g}A :|